recipes/voxer/icon.svg

<svg height="80" viewBox="0 0 80 80" width="80" xmlns="http://www.w3.org/2000/svg" xmlns:xlink="http://www.w3.org/1999/xlink"><mask id="a" fill="#fff"><path d="m64.2711587.00013333c8.61941.03528025 15.6673632 7.06742618 15.7284413 15.68101957v48.6376942c-.0612319 8.6352884-7.1445789 15.6811529-15.7936 15.6811529h-48.412c-8.68666667 0-15.794-7.1073333-15.794-15.794v-48.412c0-8.66493718 7.07182016-15.75843248 15.7288413-15.79386667z" fill="#fff" fill-rule="evenodd"/></mask><mask id="b" fill="#fff"><path d="m59.4754006 73.5002841c-1.2593759.3261094-2.5784329.4997159-3.9360673.4997159h-48.41199997c-2.52274423 0-4.91228548-.5994415-7.03322077-1.6629215l.0000012-71.81732658h59.38128684z" fill="#fff" fill-rule="evenodd"/></mask><g fill="none" fill-rule="evenodd"><path d="m64.2062667 80.0001333h-48.4126667c-8.686 0-15.794-7.1073333-15.794-15.794v-48.4126666c0-8.68600003 7.108-15.79333337 15.794-15.79333337h48.4126667c8.6866666 0 15.7933333 7.10733334 15.7933333 15.79333337v48.4126666c0 8.6866667-7.1066667 15.794-15.7933333 15.794" fill="#eb6226" mask="url(#a)"/><path d="m6.74106667 74.0001333c-.56533334-11.8813333-2.012-23.6226666-5.62666667-35.0113333-2.69333333-8.4846667-.08266667-15.11 8.16933333-18.3646667 4.65733337-1.8373333 9.78933337-2.7173333 14.79266667-3.3546666 4.2393333-.54 9.04-.136 13.2453333-.136 0 0-.13-.778-.178-.962-.6406666-2.4613334-1.3193333-4.9126667-1.968-7.3726667-.99-3.75933333.2266667-6.21466667 3.6093334-7.32266667 5.8313333-1.91 8.6326666-1.02933333 10.1533333 3.27666667.8473333 2.4 1.5406667 4.85333333 2.3593333 7.264 6.3486667 18.6866667 9.5073334 42.2033333 7.6493334 61.9833333" fill="#fefefe" mask="url(#b)" transform="translate(8.666667 6)"/><path d="m25.0685333 57.3708667s3.4613334 3 12.2946667 3c12 0 19.8333333-10 19.8333333-10" stroke="#eb6226" stroke-linecap="round" stroke-width="4"/><g fill="#eb6226"><path d="m26.7479333 44.5375333c0 1.7493334-1.4173333 3.1666667-3.1666666 3.1666667-1.7486667 0-3.1666667-1.4173333-3.1666667-3.1666667 0-1.7493333 1.418-3.1666666 3.1666667-3.1666666 1.7493333 0 3.1666666 1.4173333 3.1666666 3.1666666"/><path d="m54.8188667 37.323c.5966666 1.644-.2526667 3.46-1.8973334 4.0566667-1.644.596-3.46-.2533334-4.0566666-1.8973334-.596-1.644.2533333-3.46 1.8973333-4.0566666 1.644-.596 3.46.2533333 4.0566667 1.8973333"/></g></g></svg>

<svg height="80" width="80" xmlns="http://www.w3.org/2000/svg"><mask id="a" fill="#fff"><path d="M64.271 0C72.891.035 79.94 7.068 80 15.681V64.32C79.938 72.954 72.855 80 64.206 80H15.794C7.107 80 0 72.893 0 64.206V15.794C0 7.129 7.072.036 15.729 0z" fill-rule="evenodd"/></mask><mask id="b" fill="#fff"><path d="M59.475 73.5c-1.259.326-2.578.5-3.936.5H7.127c-2.522 0-4.912-.6-7.033-1.663V.52h59.381z" fill-rule="evenodd"/></mask><g fill="none" fill-rule="evenodd"><path d="M64.206 80H15.794C7.108 80 0 72.893 0 64.206V15.793C0 7.107 7.108 0 15.794 0h48.412C72.893 0 80 7.107 80 15.793v48.413C80 72.893 72.893 80 64.206 80" fill="#eb6226" mask="url(#a)"/><path d="M6.741 74C6.176 62.12 4.73 50.377 1.114 38.99c-2.693-8.485-.082-15.11 8.17-18.365 4.657-1.837 9.79-2.717 14.792-3.355 4.24-.54 9.04-.136 13.246-.136 0 0-.13-.778-.178-.962-.64-2.46-1.32-4.912-1.968-7.372-.99-3.76.226-6.215 3.61-7.323 5.83-1.91 8.632-1.03 10.152 3.277.848 2.4 1.541 4.853 2.36 7.264C57.646 30.703 60.805 54.22 58.948 74" fill="#fefefe" mask="url(#b)" transform="translate(8.667 6)"/><path d="M25.069 57.37s3.46 3 12.294 3c12 0 19.834-10 19.834-10" stroke="#eb6226" stroke-linecap="round" stroke-width="4"/><g fill="#eb6226"><path d="M26.748 44.538a3.166 3.166 0 1 1-6.332 0 3.166 3.166 0 0 1 6.332 0M54.819 37.323a3.166 3.166 0 1 1-5.953 2.16 3.166 3.166 0 0 1 5.953-2.16"/></g></g></svg>
